src/assets/image/icons/creative.svg

<svg width="62" height="62" viewBox="0 0 62 62" fill="none" xmlns="http://www.w3.org/2000/svg">
<g clip-path="url(#clip0_43_2103)">
<path d="M47.4688 46.5C49.0711 46.5 50.375 45.1961 50.375 43.5938C50.375 41.9914 49.0711 40.6875 47.4688 40.6875C45.8664 40.6875 44.5625 41.9914 44.5625 43.5938C44.5625 45.1961 45.8664 46.5 47.4688 46.5ZM47.4688 42.625C48.0025 42.625 48.4375 43.059 48.4375 43.5938C48.4375 44.1285 48.0025 44.5625 47.4688 44.5625C46.935 44.5625 46.5 44.1285 46.5 43.5938C46.5 43.059 46.935 42.625 47.4688 42.625ZM58.7411 14.3162C60.2175 12.8398 61.0312 10.8762 61.0312 8.78753C61.0312 4.47659 57.5234 0.96875 53.2125 0.96875C51.1238 0.96875 49.1602 1.7825 47.6838 3.25888L36.4851 14.4586C35.0368 13.9723 33.5013 13.6894 31.9155 13.6051C30.5786 11.2695 28.0666 9.6875 25.1875 9.6875C24.4503 9.6875 23.7392 9.79794 23.0621 9.99072C21.39 6.84713 18.1418 4.84375 14.5312 4.84375C9.18956 4.84375 4.84375 9.18956 4.84375 14.5312C4.84375 15.2733 4.93481 16.0037 5.10047 16.7187C2.7125 17.4414 0.96875 19.6608 0.96875 22.2812C0.96875 25.4868 3.57566 28.0938 6.78125 28.0938H13.8086C13.6477 29.0518 13.5625 30.0245 13.5625 31C13.5625 33.1322 13.9568 34.8672 14.5933 36.3494L5.95103 44.9926L1.14216 57.4953C1.02688 57.7937 0.96875 58.1076 0.96875 58.4282C0.96875 59.8639 2.13706 61.0312 3.57178 61.0312C3.89244 61.0312 4.20631 60.9722 4.50566 60.8578L17.0083 56.049L23.3275 49.7288C23.28 49.9371 23.25 50.1522 23.25 50.375C23.25 51.1219 23.5416 51.7971 24.0056 52.3125C23.5406 52.8279 23.25 53.5031 23.25 54.25C23.25 55.5966 24.1752 56.7222 25.42 57.0497C26.2454 59.4134 28.4561 61.0312 31 61.0312C33.5439 61.0312 35.7546 59.4134 36.58 57.0497C37.8248 56.7222 38.75 55.5966 38.75 54.25C38.75 54.1773 38.7335 54.1095 38.7287 54.0388L39.9319 55.242L41.3433 53.8315C41.8771 53.2967 42.6744 53.1408 43.4165 53.4498C44.112 53.7395 44.5625 54.4118 44.5625 55.1655V57.1562H50.375V55.1655C50.375 54.4118 50.8255 53.7385 51.5588 53.4353C52.2621 53.1427 53.0613 53.2967 53.5951 53.8315L55.0056 55.242L59.117 51.1306L57.7075 49.7201C57.1737 49.1854 57.0177 48.3862 57.3267 47.646C57.6145 46.9505 58.2868 46.5 59.0405 46.5H61.0312V40.6875H59.0405C58.2868 40.6875 57.6135 40.237 57.3103 39.5037C57.0168 38.8004 57.1727 38.0012 57.7065 37.4664L59.116 36.0559L55.0047 31.9445L53.5932 33.355C53.0594 33.8898 52.2592 34.0448 51.5191 33.7348C50.8245 33.448 50.375 32.7757 50.375 32.022V30.0312H48.3881C48.2999 28.4687 48.0103 26.9584 47.5298 25.5275L58.7411 14.3162ZM43.959 19.4118L48.4375 14.9323L51.9114 18.4062L46.7373 23.5803C46.0117 22.0575 45.074 20.6567 43.959 19.4118ZM44.9636 8.71875L46.5 7.18231L54.8177 15.5L53.2812 17.0364L44.9636 8.71875ZM53.2125 2.90625C56.4549 2.90625 59.0938 5.54513 59.0938 8.78753C59.0938 10.3579 58.4825 11.8352 57.3713 12.9464L56.1875 14.1302L47.8698 5.8125L49.0536 4.62869C50.1648 3.5185 51.6412 2.90625 53.2125 2.90625ZM43.5938 10.0886L47.0677 13.5625L42.5911 18.0391C41.3472 16.9231 39.9474 15.9844 38.4245 15.2578L43.5938 10.0886ZM46.5 31C46.5 36.0404 43.9619 38.5165 41.2746 41.137C39.4242 42.9418 37.5236 44.8076 36.4172 47.5269C36.2322 47.4891 36.0404 47.4688 35.8438 47.4688H31.9688V42.625C31.9688 41.0227 30.6648 39.7188 29.0625 39.7188H27.125C26.5912 39.7188 26.1562 39.2848 26.1562 38.75C26.1562 38.2152 26.5912 37.7812 27.125 37.7812H36.8125C38.4148 37.7812 39.7188 36.4773 39.7188 34.875C39.7188 33.2727 38.4148 31.9688 36.8125 31.9688H29.0625C28.5287 31.9688 28.0938 31.5347 28.0938 31V28.0938H32.9375C35.6083 28.0938 37.7812 25.9208 37.7812 23.25C37.7812 20.5792 35.6083 18.4062 32.9375 18.4062C32.9104 18.4062 32.8852 18.414 32.8581 18.414C32.8997 18.0904 32.9375 17.7669 32.9375 17.4375C32.9375 16.8039 32.8522 16.1907 32.7089 15.6007C40.4318 16.461 46.5 23.0892 46.5 31ZM42.7955 42.3596C43.8524 41.3278 44.9113 40.2738 45.8248 39.0552C46.3518 38.8633 46.9001 38.75 47.4688 38.75C50.1396 38.75 52.3125 40.9229 52.3125 43.5938C52.3125 46.2646 50.1396 48.4375 47.4688 48.4375C44.7979 48.4375 42.625 46.2646 42.625 43.5938C42.625 43.1743 42.6899 42.7616 42.7955 42.3596ZM25.1875 50.375C25.1875 49.8402 25.6225 49.4062 26.1562 49.4062H35.8438C36.3775 49.4062 36.8125 49.8402 36.8125 50.375C36.8125 50.9098 36.3775 51.3438 35.8438 51.3438H26.1562C25.6225 51.3438 25.1875 50.9098 25.1875 50.375ZM12.9948 50.375L20.1161 43.2537C21.3077 44.4356 22.414 45.631 23.2297 47.0871L16.4688 53.8489L12.9948 50.375ZM2.90625 22.2812C2.90625 20.1442 4.64419 18.4062 6.78125 18.4062C8.91831 18.4062 10.6562 20.1442 10.6562 22.2812H12.5938C12.5938 19.1599 10.1186 16.6121 7.02925 16.4813C6.86456 15.8478 6.78125 15.1939 6.78125 14.5312C6.78125 10.2581 10.2581 6.78125 14.5312 6.78125C17.3648 6.78125 19.9223 8.32156 21.2825 10.7541C19.2171 11.966 17.7582 14.1002 17.4859 16.5908C15.7945 17.0074 14.5312 18.5254 14.5312 20.3438H16.4688C16.4688 19.2752 17.3377 18.4062 18.4062 18.4062C19.4748 18.4062 20.3438 19.2752 20.3438 20.3438H22.2812C22.2812 18.5661 21.0723 17.081 19.438 16.6257C19.8352 13.8047 22.258 11.625 25.1875 11.625C28.3931 11.625 31 14.2319 31 17.4375C31 17.9471 30.9167 18.446 30.7869 18.9323C29.1981 19.7276 28.0938 21.3551 28.0938 23.25H30.0312C30.0312 21.6477 31.3352 20.3438 32.9375 20.3438C34.5398 20.3438 35.8438 21.6477 35.8438 23.25C35.8438 24.8523 34.5398 26.1562 32.9375 26.1562H6.78125C4.64419 26.1562 2.90625 24.4183 2.90625 22.2812ZM26.1562 28.0938V31C26.1562 32.6023 27.4602 33.9062 29.0625 33.9062H36.8125C37.3463 33.9062 37.7812 34.3402 37.7812 34.875C37.7812 35.4098 37.3463 35.8438 36.8125 35.8438H27.125C25.5227 35.8438 24.2188 37.1477 24.2188 38.75C24.2188 40.3523 25.5227 41.6562 27.125 41.6562H29.0625C29.5963 41.6562 30.0312 42.0902 30.0312 42.625V47.4688H26.1562C25.9596 47.4688 25.7678 47.4891 25.5828 47.5269C24.4764 44.8076 22.5757 42.9418 20.7254 41.137C18.0381 38.5165 15.5 36.0404 15.5 31C15.5 30.0206 15.6172 29.0499 15.7984 28.0938H26.1562ZM18.7327 41.8975L11.625 49.0052L8.15106 45.5312L15.5426 38.1397C16.4523 39.5676 17.5799 40.7592 18.7327 41.8975ZM7.15034 47.2702L14.7298 54.8497L8.31284 57.318L4.68197 53.6872L7.15034 47.2702ZM3.81106 59.0492C3.39159 59.2119 2.90625 58.8777 2.90625 58.4282C2.90625 58.3459 2.92175 58.2655 2.94984 58.1899L3.92053 55.6653L6.33369 58.0785L3.81106 59.0492ZM31 59.0938C29.5692 59.0938 28.2933 58.3323 27.5861 57.1562H34.4139C33.7067 58.3323 32.4308 59.0938 31 59.0938ZM35.8438 55.2188H26.1562C25.6225 55.2188 25.1875 54.7848 25.1875 54.25C25.1875 53.7152 25.6225 53.2812 26.1562 53.2812H35.8438C36.3775 53.2812 36.8125 53.7152 36.8125 54.25C36.8125 54.7848 36.3775 55.2188 35.8438 55.2188ZM50.8119 35.5396C52.2418 36.1383 53.8732 35.8186 54.9649 34.7258L55.0056 34.6851L56.3774 36.0569L56.3367 36.0976C55.2459 37.1893 54.9262 38.8198 55.5355 40.2806C56.1236 41.7047 57.4992 42.625 59.0405 42.625H59.0938V44.5625H59.0405C57.4992 44.5625 56.1236 45.4828 55.5229 46.9379C54.9262 48.3687 55.2459 49.9982 56.3367 51.0899L56.3774 51.1306L55.0056 52.5024L54.9649 52.4617C53.8722 51.3689 52.2408 51.0483 50.7809 51.6605C49.3578 52.2495 48.4375 53.6242 48.4375 55.1655V55.2188H46.5V55.1655C46.5 53.6242 45.5797 52.2486 44.1246 51.647C42.6918 51.0493 41.0624 51.3699 39.9716 52.4617L39.9309 52.5024L38.6182 51.1897C38.6957 50.9291 38.75 50.6598 38.75 50.375C38.75 49.6872 38.5001 49.0633 38.099 48.5644C38.7016 46.9379 39.6461 45.6368 40.7456 44.4356C41.1622 47.7778 44.0152 50.375 47.4688 50.375C51.2081 50.375 54.25 47.3322 54.25 43.5938C54.25 39.8553 51.2081 36.8125 47.4688 36.8125C47.3738 36.8125 47.2818 36.8222 47.1878 36.8261C47.8437 35.465 48.2941 33.8869 48.4075 31.9688H48.4375V32.022C48.4375 33.5633 49.3578 34.9389 50.8119 35.5396Z" fill="url(#paint0_linear_43_2103)"/>
</g>
<defs>
<linearGradient id="paint0_linear_43_2103" x1="31" y1="61.0312" x2="31" y2="0.96875" gradientUnits="userSpaceOnUse">
<stop stop-color="#6582FD"/>
<stop offset="1" stop-color="#E13E91"/>
</linearGradient>
<clipPath id="clip0_43_2103">
<rect width="62" height="62" fill="white"/>
</clipPath>
</defs>
</svg>

<svg xmlns="http://www.w3.org/2000/svg" width="62" height="62" fill="none"><g clip-path="url(#a)"><path fill="url(#b)" d="M47.469 46.5a2.91 2.91 0 0 0 2.906-2.906 2.91 2.91 0 0 0-2.906-2.907 2.91 2.91 0 0 0-2.907 2.907A2.91 2.91 0 0 0 47.47 46.5m0-3.875a.97.97 0 0 1 0 1.938.97.97 0 0 1 0-1.938M58.74 14.316a7.77 7.77 0 0 0 2.29-5.528c0-4.311-3.508-7.82-7.818-7.82a7.77 7.77 0 0 0-5.53 2.29l-11.198 11.2a17.2 17.2 0 0 0-4.57-.853c-1.336-2.335-3.848-3.918-6.727-3.918-.738 0-1.449.11-2.126.304-1.672-3.144-4.92-5.147-8.53-5.147-5.342 0-9.688 4.346-9.688 9.687 0 .742.09 1.473.256 2.188A5.82 5.82 0 0 0 .97 22.28a5.82 5.82 0 0 0 5.812 5.813h7.028c-.161.958-.246 1.93-.246 2.906 0 2.132.394 3.867 1.03 5.35l-8.642 8.643-4.809 12.502a2.606 2.606 0 0 0 3.363 3.362l12.503-4.808 6.32-6.32a3 3 0 0 0-.078.646c0 .747.292 1.422.756 1.938a2.88 2.88 0 0 0-.756 1.937c0 1.347.925 2.472 2.17 2.8A5.91 5.91 0 0 0 31 61.03a5.91 5.91 0 0 0 5.58-3.981 2.9 2.9 0 0 0 2.17-2.8c0-.073-.017-.14-.021-.211l1.203 1.203 1.411-1.41c.534-.535 1.331-.691 2.073-.382.696.29 1.147.962 1.147 1.715v1.991h5.812v-1.99c0-.754.45-1.427 1.184-1.73a1.86 1.86 0 0 1 2.036.395l1.41 1.411 4.112-4.111-1.41-1.41c-.533-.536-.69-1.335-.38-2.075A1.85 1.85 0 0 1 59.04 46.5h1.99v-5.812h-1.99c-.754 0-1.427-.451-1.73-1.184a1.86 1.86 0 0 1 .395-2.038l1.41-1.41-4.111-4.111-1.412 1.41c-.534.535-1.334.69-2.074.38a1.85 1.85 0 0 1-1.144-1.713v-1.99h-1.987a17.2 17.2 0 0 0-.858-4.504zM43.96 19.412l4.478-4.48 3.474 3.474-5.174 5.174a17.6 17.6 0 0 0-2.778-4.168m1.005-10.693L46.5 7.182l8.318 8.318-1.537 1.536zm8.249-5.813a5.89 5.89 0 0 1 5.88 5.882c0 1.57-.61 3.047-1.722 4.158l-1.184 1.184-8.317-8.317 1.184-1.184a5.85 5.85 0 0 1 4.158-1.723m-9.62 7.183 3.475 3.473-4.477 4.477a17.6 17.6 0 0 0-4.166-2.781zM46.5 31c0 5.04-2.538 7.517-5.225 10.137-1.85 1.805-3.751 3.67-4.858 6.39a3 3 0 0 0-.573-.058h-3.875v-4.844a2.91 2.91 0 0 0-2.907-2.906h-1.937a.97.97 0 0 1 0-1.938h9.688a2.91 2.91 0 0 0 2.906-2.906 2.91 2.91 0 0 0-2.907-2.906h-7.75a.97.97 0 0 1-.968-.969v-2.906h4.843a4.85 4.85 0 0 0 4.844-4.844 4.85 4.85 0 0 0-4.843-4.844c-.028 0-.053.008-.08.008.042-.324.08-.647.08-.977 0-.633-.086-1.246-.23-1.836C40.433 16.46 46.5 23.089 46.5 31m-3.705 11.36c1.057-1.032 2.116-2.086 3.03-3.305a4.8 4.8 0 0 1 1.644-.305 4.85 4.85 0 0 1 4.843 4.844 4.85 4.85 0 0 1-4.843 4.843 4.85 4.85 0 0 1-4.844-4.843c0-.42.065-.832.17-1.234m-17.607 8.015a.97.97 0 0 1 .968-.969h9.688a.97.97 0 0 1 0 1.938h-9.688a.97.97 0 0 1-.968-.969m-12.193 0 7.121-7.121c1.192 1.182 2.298 2.377 3.114 3.833l-6.761 6.762zM2.906 22.281a3.88 3.88 0 0 1 3.875-3.875 3.88 3.88 0 0 1 3.875 3.875h1.938c0-3.121-2.475-5.669-5.565-5.8a7.7 7.7 0 0 1-.248-1.95c0-4.273 3.477-7.75 7.75-7.75a7.73 7.73 0 0 1 6.751 3.973 7.76 7.76 0 0 0-3.796 5.837c-1.692.416-2.955 1.934-2.955 3.753h1.938a1.94 1.94 0 0 1 1.937-1.938 1.94 1.94 0 0 1 1.938 1.938h1.937c0-1.778-1.209-3.263-2.843-3.718.397-2.821 2.82-5.001 5.75-5.001A5.82 5.82 0 0 1 31 17.438c0 .51-.083 1.008-.213 1.494-1.589.796-2.693 2.423-2.693 4.318h1.937a2.91 2.91 0 0 1 2.907-2.906 2.91 2.91 0 0 1 2.906 2.906 2.91 2.91 0 0 1-2.907 2.906H6.782a3.88 3.88 0 0 1-3.875-3.875m23.25 5.813V31a2.91 2.91 0 0 0 2.907 2.906h7.75a.97.97 0 0 1 0 1.938h-9.688a2.91 2.91 0 0 0-2.906 2.906 2.91 2.91 0 0 0 2.906 2.906h1.938a.97.97 0 0 1 .968.969v4.844h-3.875q-.295 0-.573.058c-1.107-2.72-3.007-4.585-4.858-6.39C18.038 38.517 15.5 36.04 15.5 31c0-.98.117-1.95.298-2.906zm-7.423 13.804-7.108 7.107-3.474-3.474 7.392-7.391c.91 1.428 2.037 2.62 3.19 3.758M7.15 47.27l7.58 7.58-6.417 2.468-3.631-3.63zM3.811 59.05c-.42.162-.905-.172-.905-.622q.001-.124.044-.238l.97-2.525 2.414 2.413zM31 59.093a3.98 3.98 0 0 1-3.414-1.938h6.828A3.98 3.98 0 0 1 31 59.094m4.844-3.875h-9.688a.97.97 0 0 1 0-1.938h9.688a.97.97 0 0 1 0 1.938m14.968-19.68a3.78 3.78 0 0 0 4.153-.813l.04-.04 1.372 1.37-.04.042c-1.091 1.091-1.41 2.722-.802 4.183a3.78 3.78 0 0 0 3.506 2.344h.053v1.938h-.053c-1.542 0-2.917.92-3.518 2.375a3.79 3.79 0 0 0 .814 4.152l.04.04-1.371 1.372-.041-.04c-1.093-1.093-2.724-1.414-4.184-.802a3.78 3.78 0 0 0-2.343 3.506v.053H46.5v-.053c0-1.542-.92-2.917-2.375-3.519a3.79 3.79 0 0 0-4.153.815l-.041.04-1.313-1.312c.078-.26.132-.53.132-.815 0-.688-.25-1.312-.651-1.81.603-1.627 1.547-2.928 2.647-4.13.416 3.343 3.27 5.94 6.723 5.94a6.79 6.79 0 0 0 6.781-6.781 6.79 6.79 0 0 0-6.781-6.782c-.095 0-.187.01-.281.014.656-1.361 1.106-2.94 1.22-4.857h.03v.053c0 1.541.92 2.917 2.374 3.518"/></g><defs><linearGradient id="b" x1="31" x2="31" y1="61.031" y2=".969" gradientUnits="userSpaceOnUse"><stop stop-color="#6582FD"/><stop offset="1" stop-color="#E13E91"/></linearGradient><clipPath id="a"><path fill="#fff" d="M0 0h62v62H0z"/></clipPath></defs></svg>
